dist/images/icon/video-arrow.svg

<svg width="108" height="41" viewBox="0 0 108 41" fill="none" xmlns="http://www.w3.org/2000/svg">
<path fill-rule="evenodd" clip-rule="evenodd" d="M0.0644859 0.883812C4.98179 10.5957 15.302 18.5409 27.589 24.0108C45.9483 32.1813 68.684 34.8351 84.1284 29.7655C84.4453 29.6571 84.6187 29.3127 84.5153 28.9988C84.4099 28.6769 84.0705 28.5064 83.7486 28.6118C68.5432 33.6009 46.1601 30.9487 28.0823 22.898C16.0729 17.5544 5.95301 9.82995 1.15045 0.334053C0.999072 0.0320584 0.63461 -0.0854409 0.332615 0.0659416C0.0386175 0.215339 -0.0868967 0.581817 0.0644859 0.883812Z" fill="#FF3F56"/>
<path fill-rule="evenodd" clip-rule="evenodd" d="M103.418 29.1784C94.3211 31.6575 86.0839 32.9131 78.0677 38.94C77.8006 39.1464 77.742 39.526 77.9484 39.7931C78.1468 40.0622 78.5294 40.1157 78.7935 39.9143C87.6149 33.2842 96.7206 32.5516 106.952 29.4299C107.504 29.2589 107.486 28.8262 107.473 28.7233C107.456 28.5704 107.381 28.3345 107.071 28.2161C107.01 28.193 106.884 28.1649 106.702 28.1506C106.354 28.131 105.641 28.1508 105.322 28.1283C104.399 28.0559 103.484 27.9605 102.562 27.888C99.9258 27.6809 97.2994 27.4459 94.6933 27.019C84.941 25.4374 76.9567 24.2064 70.7811 16.0532C70.5777 15.7811 70.2 15.7305 69.9279 15.9339C69.6638 16.1353 69.6103 16.5179 69.8117 16.782C76.1976 25.2184 84.4145 26.5826 94.4995 28.2216C97.1396 28.6485 99.8019 28.8917 102.464 29.1008C102.784 29.1233 103.101 29.1509 103.418 29.1784Z" fill="#FF3F56"/>
</svg>

<svg width="108" height="41" fill="none" xmlns="http://www.w3.org/2000/svg"><path fill-rule="evenodd" clip-rule="evenodd" d="M.064.884C4.982 10.596 15.302 18.54 27.59 24.01c18.36 8.17 41.095 10.824 56.54 5.755a.613.613 0 00.386-.767.603.603 0 00-.766-.387c-15.207 4.989-37.59 2.338-55.668-5.713C16.072 17.554 5.953 9.83 1.15.334A.606.606 0 00.333.066a.613.613 0 00-.269.818z" fill="#FF3F56"/><path fill-rule="evenodd" clip-rule="evenodd" d="M103.418 29.178c-9.097 2.48-17.334 3.735-25.35 9.762a.608.608 0 00-.12.853.6.6 0 00.846.121c8.82-6.63 17.927-7.362 28.158-10.484.552-.171.534-.604.521-.707a.588.588 0 00-.402-.507 1.49 1.49 0 00-.369-.065c-.348-.02-1.061 0-1.38-.023-.923-.072-1.838-.168-2.76-.24-2.636-.207-5.263-.442-7.869-.869-9.752-1.582-17.736-2.813-23.912-10.966a.605.605 0 00-.853-.12.608.608 0 00-.116.849c6.386 8.436 14.603 9.8 24.688 11.44 2.64.426 5.302.67 7.964.879.32.022.637.05.954.077z" fill="#FF3F56"/></svg>
